status/48/audio-volume-low-symbolic.svg

<?xml version="1.0" encoding="UTF-8" standalone="no"?>
<svg
   height="48"
   width="48"
   version="1.1"
   id="svg6"
   xmlns="http://www.w3.org/2000/svg"
   xmlns:svg="http://www.w3.org/2000/svg">
  <defs
     id="defs10" />
  <path
     id="path947-3"
     style="font-variation-settings:normal;vector-effect:none;fill:#555761;fill-opacity:1;stroke:none;stroke-width:4;stroke-linecap:round;stroke-linejoin:round;stroke-miterlimit:4;stroke-dasharray:none;stroke-dashoffset:0;stroke-opacity:1;-inkscape-stroke:none;stop-color:#000000"
     d="m 25.5,13 c -0.436463,0 -0.827938,0.184824 -1.101562,0.480469 L 18,19 H 14.5 C 13.669,19 13,19.669 13,20.5 v 7 c 0,0.831 0.669,1.5 1.5,1.5 H 18 l 6.408203,5.529297 C 24.681361,34.819055 25.068515,35 25.5,35 26.331,35 27,34.331 27,33.5 v -19 C 27,13.669 26.331,13 25.5,13 Z m 6.164062,3 a 1.5,1.5 0 0 0 -1.5,1.5 1.5,1.5 0 0 0 0.167969,0.679688 l -0.0078,0.0039 A 10.99168,10.99168 0 0 1 31.992188,24 10.99168,10.99168 0 0 1 30.324219,29.816406 l 0.0078,0.0039 A 1.5,1.5 0 0 0 30.164062,30.5 a 1.5,1.5 0 0 0 1.5,1.5 1.5,1.5 0 0 0 1.203126,-0.597656 l 0.01172,0.0078 A 14,14 0 0 0 35,24 14,14 0 0 0 32.878906,16.589844 l -0.01172,0.0078 A 1.5,1.5 0 0 0 31.664062,16 Z" />
  <g
     transform="translate(-593,295)"
     id="g4" />
</svg>

<svg
        xmlns='http://www.w3.org/2000/svg'
        xmlns:svg='http://www.w3.org/2000/svg'
        id='svg6'
        width='48'
        height='48'>
  <path
          id='path947-3'
          fill='url(#gpa:foreground) #555761'
          fill-opacity='1'
          fill-rule='nonzero'
          stroke='none'
          stroke-opacity='1'
          stroke-width='4'
          stroke-linecap='round'
          stroke-linejoin='round'
          stroke-miterlimit='4'
          stroke-dasharray='none'
          stroke-dashoffset='0'
          d='M 25.5 13 C 25.0635 13, 24.6721 13.1848, 24.3984 13.4805 L 18 19 L 14.5 19 C 13.669 19, 13 19.669, 13 20.5 L 13 27.5 C 13 28.331, 13.669 29, 14.5 29 L 18 29 L 24.4082 34.5293 C 24.6814 34.8191, 25.0685 35, 25.5 35 C 26.331 35, 27 34.331, 27 33.5 L 27 14.5 C 27 13.669, 26.331 13, 25.5 13 Z M 31.6641 16 A 1.5 1.5 0 0 0 30.1641 17.5 A 1.5 1.5 0 0 0 30.332 18.1797 L 30.3242 18.1836 A 10.9917 10.9917 0 0 1 31.9922 24 A 10.9917 10.9917 0 0 1 30.3242 29.8164 L 30.332 29.8203 A 1.5 1.5 0 0 0 30.1641 30.5 A 1.5 1.5 0 0 0 31.6641 32 A 1.5 1.5 0 0 0 32.8672 31.4023 L 32.8789 31.4101 A 14 14 0 0 0 35 24 A 14 14 0 0 0 32.8789 16.5898 L 32.8672 16.5976 A 1.5 1.5 0 0 0 31.6641 16 Z'
          class="foreground">
  </path>
</svg>
